X:545
T:A Rosa Vermelha
S:Barbara Pomerenke-Steel
Z:Nigel Gatherer
M:4/4
L:1/8
K:Am
A2c2 e4 | a4 e2e2 | A2c2 e4 | a4 f4 | d2e2 f2a2 | f2d2 c2e2 |
a2e2 e2d2 | c2B2 A4 | ABcd e2c'2 | b2a2 e2e2 | ABcd e2c'2 | 
b2a2 f2f2 | d^cde f2a2 | fafd c2e2 | a^gaf e2d2 |
c2B2 A4 |ABcd e2c'2 | b2a2 e2e2 | ABcd e2c'2 | b2a2 f2f2 | 
d^cde f2a2 | fafd c2e2 | a^gaf e2d2 | c2B2 A4 |]
